!!!COM: Bach, Johann Sebastian
!!!OPR: Joh. Seb. Bachs vierstimmige Choralges‰nge
!!!XEN: Four-part Chorales
!!!OTL: 50. Ein' feste Burg ist unser Gott
!!!SCT: BWV 303
!!!SCA: Thematisch-systematisches Verzeichnis der musikalischen Werke Johann Sebastian Bach: Bach-Werke-Verzeichnis (Schmieder)
!!!YOR: Bach Gesellschaft Edition xxxix
!!!ENC: Steven Rasmussen
!!!CDT: 1685/3//-1750/7/28/
!!!OCY: Deutschland
!!!YEC: Copyright (c) 1994, 2000 Center for Computer Assisted Research in the Humanities
!!!YEM: Rights to all derivative editions reserved
!!!YEN: United States of America
**kern	**kern	**kern	**kern	**silbe
*I:[BASSO]	*I:[TENORE]	*I:[ALTO]	*I:[SOPRANO]	*I:[SOPRANO]
*>[A,A,B]	*>[A,A,B]	*>[A,A,B]	*>[A,A,B]	*
*>A	*>A	*>A	*>A	*
*clefF4	*clefGv2	*clefG2	*clefG2	*
*k[f#c#]	*k[f#c#]	*k[f#c#]	*k[f#c#]	*
*D:	*D:	*D:	*D:	*
*M4/4	*M4/4	*M4/4	*M4/4	*
8dL	8f#L	4a	4dd	Ein'Er
8c#J	8eJ	.	.	.
=1	=1	=1	=1	=1
4B	4d	8aL	4dd	fe-hilft
.	.	8gJ	.	.
8AL	8cnL	8f#L	4dd	-steuns
8GJ	8BJ	8gJ	.	.
4F#	4d	8aL	8aL	Burgfrei
.	.	8f#J	8bJ	.
4E	4e	8gL	4cc#	istaus
.	.	8aJ	.	.
=2	=2	=2	=2	=2
4D	4A	8f#L	8ddL	un-al-
.	.	8eJ	8cc#J	.
4E	8AL	8dL	4b	-ser-ler
.	8G#J	8eJ	.	.
4AA;	4A;	4c#;	4a;	Gott,Not,
4BB	8F#L	4f#	4dd	ein'die
.	8G#J	.	.	.
=3	=3	=3	=3	=3
8C#L	4A	8eL	4cc#	gu-uns
8DJ	.	8f#J	.	.
4E	8eL	4g	4b	-tejetzt
.	8dJ	.	.	.
4F#	4c#	8f#L	4a	Wehrhat
.	.	8eJ	.	.
8GL	8BL	4d	8bL	undbe-
8AJ	8c#J	.	8aJ	.
=4	=4	=4	=4	=4
8BL	4d	4d	(8gL	Waf--trof-
8G	.	.	8f#J	.
8A	8AL	4c#	4e)	.
8AAJ	8GJ	.	.	.
4D;	4F#;	4A;	4d;	-fen.-fen.
=:|!	=:|!	=:|!	=:|!	=:|!
*>B	*>B	*>B	*>B	*
8DL	8F#L	4d	(4d	Der
8EJ	8G#J	.	.	.
=5	=5	=5	=5	=5
4F#	8AL	8c#L	4a)	.
.	8dJ	8f#J	.	.
4G#	8c#L	8eL	4b	alt'
.	8BJ	8dJ	.	.
8AL	8eL	8c#L	4a	b√∂-
8DJ	8f#J	8dJ	.	.
4E	8eL	4B	4g#	-se
.	8dJ	.	.	.
=6	=6	=6	=6	=6
4AA;	4c#;	4A;	4a;	Feind,
4BB	8F#L	4d	4d	mit
.	8GJ	.	.	.
4F#	4A	4d	4a	Ernst
8E	8e	8g	8b	er's
8AA	8e	8g	8cc#	jetzt
=7	=7	=7	=7	=7
4D	4d	4f#	4dd	meint,
4F#	4A	4f#	4cc#	gross
8BB	8B	16f#LL	8dd	Macht
.	.	16g#JJ	.	.
8C#	8e	8a	8cc#	und
8DL	8f#L	8aL	4b	viel
8EJ	8eJ	8g#J	.	.
=8	=8	=8	=8	=8
4AA;	4c#;	4a;	4a;	List
4E	8BL	4g	4b	sein
.	8c#J	.	.	.
8BBL	4d	4g	4b	grau-
8C#J	.	.	.	.
4D	8dL	4f#	4a	-sam
.	8cnJ	.	.	.
=9	=9	=9	=9	=9
4D#	4B	4f#	8bL	R√º-
.	.	.	8aJ	.
4E	4B	4e	4g	-stung
4BB;	4B;	4d#;	4f#;	ist,
4BB	4B	8f#L	4dd	auf
.	.	8g#J	.	.
=10	=10	=10	=10	=10
8C#L	4e	4a	4cc#	Erd'n
8DJ	.	.	.	.
8EL	4e	4g	4b	ist
8DJ	.	.	.	.
8C#L	4e	4g	4a	nicht
8AAJ	.	.	.	.
8DL	8dL	8f#L	8bL	sein's
8C#J	8AJ	8eJ	8aJ	.
=11	=11	=11	=11	=11
8BBL	4B	4d	(8gL	Glei-
8GGJ	.	.	8f#J	.
4AA	8EL	4c#	4e)	.
.	8AJ	.	.	.
2D;	2F#;	2A;	2d;	-chen.
==|!	==|!	==|!	==|!	==|!
*-	*-	*-	*-	*-
!!!RWG: Key is interpreted using the Humdrum key tool.
!!!END: 1994/05/18
!!!EMD: Converted from MuseData to Humdrum Dec 19, 2000, by Andreas Kornstaedt using muse2kern.
!!!EED: Craig Stuart Sapp
!!!EEV: 2024/03/31
!!!ONB: Some non-unicode characters
